X:1
T:Nearer, Still Nearer
T:Lelia Naylor Morris, 1898
T:Nearer, Still Nearer
T:Public Domain
T:Public Domain
C:Lelia Naylor Morris, 1898
Z:Public Domain
%%score ( 1 2 ) ( 3 4 )
L:1/8
M:4/4
K:Db
V:1 treble 
V:2 treble 
V:3 bass 
V:4 bass 
V:1
 [DF]4 [DF]2 [DF]2 | [EA]4 [EA]4 | D4 [DG]2 [DG]2 | [DF]6 z2 | [DB]4 [GB]2 [GB]2 | %5
w: 1.~Near- er, still|near- er,|close to Thy|Draw|me, my Sav-|
w: 2.~Near- er, still|near- er,|no- thing I|Naught|as an off-|
w: 3.~Near- er, still|near- er,|Lord, to be|Sin,|with its fol-|
w: 4.~Near- er, still|near- er,|while life shall|Till|safe in glo-|
 [FA]4 [DF]2 [DF]2 | [DF]4 [B,E]2 [DE]2 | [CE]6 z2 | [DF]4 [DF]2 [DF]2 | [EA]4 [FA]4 | %10
w: ior— so pre-|cious Thou art!|Fold|me, oh, fold|me close|
w: r’ing to Je-|sus, my king;|On-|ly my sin-|ful, now|
w: lies, I glad-|ly re- sign,|All|of its plea-|sures, pomp|
w: ry my an-|chor is cast;|Through|end- less ag-|es ev-|
 [GB]4 [Gc]2 [Fd]2 | [Ec]6 z2 | [Ad]4 [Ac]2 [GB]2 | [FA]4 [DF]2 [DA]2 | [CA]4 [CA]3 [CG] | %15
w: to Thy breast.|Shel-|ter me safe|in that “Ha-|ven of Rest”;|
w: con- trite heart.|Grant|me the cleans-|ing Thy blood|doth im- part.|
w: and its pride,|Give|me but Je-|sus, my Lord,|cru- ci- fied.|
w: er to be|Near-|er, my Sav-|ior, still near-|er to Thee;|
 [DF]6 z2 | [GB]4 [Gc]2 [Gd]2 | [Fd]4 D2 [DE]2 | [DF]4 [CF]3 [CE] | D6 z2 |] %20
w: Shel-|ter me safe|in that “Ha-|of Rest.” *||
w: Grant|me the cleans-|ing Thy blood|im- part. *||
w: Give|me but Je-|sus, my Lord,|ci- fied. *||
w: Near-|er, my Sav-|ior, still near-|to Thee! *||
V:2
 x8 | x8 | D4 x4 | x8 | x8 | x8 | x8 | x8 | x8 | x8 | x8 | x8 | x8 | x8 | x8 | x8 | x8 | x4 D2 x2 | %18
w: ||heart,|||||||||||||||ven|
w: ||bring,|||||||||||||||doth|
w: ||Thine!|||||||||||||||cru-|
w: ||last.|||||||||||||||er|
 x8 | D6 x2 |] %20
w: ||
w: ||
w: ||
w: ||
V:3
 [D,A,]4 [D,A,]2 [D,A,]2 | [C,A,]4 [C,E,]4 | [B,,F,]4 [G,,B,]2 (G,,B,,) | [D,F,]6 z2 | %4
 (G,2 B,2) [G,D]2 [G,D]2 | [D,D]4 [D,A,]2 [D,A,]2 | [B,,B,]4 [E,=G,]2 [E,G,]2 | %7
 (z2 G,,2 F,,2 E,,2) | [D,A,]4 [D,A,]2 [D,A,]2 | [C,A,]4 [D,D]4 | [G,D]4 [E,A,]2 [D,A,]2 | A,6 z2 | %12
 (A,2 D2) [G,D]2 [G,D]2 | [D,D]4 [D,A,]2 [D,F,]2 | [A,,E,]4 [A,,E,]3 [A,,A,] | [D,A,]6 z2 | %16
 [G,,D]4 [G,,C]2 [G,,B,]2 | [A,,A,]4 [__B,,=G,]2 [B,,G,]2 | [A,,A,]4 [A,,A,]3 [A,,G,] | %19
 [D,F,]6 z2 |] %20
V:4
 x8 | x8 | x6 B,2 | x8 | G,4 x4 | x8 | x8 | [A,,A,]6 x2 | x8 | x8 | x8 | A,6 x2 | F,4 x4 | x8 | %14
 x8 | x8 | x8 | x8 | x8 | x8 |] %20

